icons/excel-dark.svg

<svg width="256" height="256" viewBox="0 0 256 256" fill="none" xmlns="http://www.w3.org/2000/svg">
<path d="M196 0H60C26.8629 0 0 26.8629 0 60V196C0 229.137 26.8629 256 60 256H196C229.137 256 256 229.137 256 196V60C256 26.8629 229.137 0 196 0Z" fill="#282828"/>
<path d="M92.5481 50.0001H205.865C206.806 49.9946 207.737 50.1834 208.601 50.5548C209.465 50.9262 210.243 51.472 210.886 52.1582C212.213 53.5813 212.952 55.4536 212.956 57.3992V197.894C212.952 199.84 212.213 201.712 210.886 203.135C210.243 203.821 209.465 204.367 208.601 204.739C207.737 205.11 206.806 205.299 205.865 205.293H92.5481C91.6015 205.276 90.6677 205.072 89.8004 204.692C88.9331 204.313 88.1494 203.766 87.4944 203.082C86.8395 202.398 86.3262 201.592 85.9842 200.709C85.6422 199.826 85.4781 198.885 85.5015 197.938V57.3992C85.4541 55.4908 86.1641 53.6413 87.4762 52.2548C88.7884 50.8683 90.596 50.0577 92.5041 50.0001H92.5481Z" fill="#21A366"/>
<path d="M85.5016 127.646V198.114C85.4543 199.061 85.5949 200.007 85.9152 200.899C86.2355 201.791 86.7293 202.611 87.368 203.311C88.0067 204.011 88.7777 204.578 89.6366 204.979C90.4954 205.379 91.4252 205.606 92.3721 205.645H205.865C206.818 205.628 207.757 205.423 208.63 205.041C209.503 204.659 210.291 204.109 210.95 203.421C211.609 202.733 212.126 201.922 212.47 201.034C212.814 200.146 212.979 199.199 212.956 198.246V127.779L85.5016 127.646Z" fill="#185C37"/>
<path d="M85.5017 88.8457H212.956V127.691H85.5017V88.8457Z" fill="#107C41"/>
<path d="M205.865 50.0001H149.229V166.492H212.956V57.3992C212.952 55.4536 212.213 53.5813 210.886 52.1582C210.243 51.472 209.465 50.9262 208.601 50.5548C207.737 50.1834 206.806 49.9946 205.865 50.0001Z" fill="#33C481"/>
<path d="M149.229 88.8457H213V127.691H149.229V88.8457Z" fill="#21A366"/>
<path d="M149.229 127.646H213V166.492H149.229V127.646Z" fill="#107C41"/>
<g opacity="0.67">
<path opacity="0.05" d="M130.6 81.7109H93.5611C92.8446 81.734 92.1659 82.0379 91.6716 82.557C91.1772 83.0761 90.9068 83.7688 90.9187 84.4856V170.853C90.9069 171.211 90.966 171.569 91.0924 171.904C91.2189 172.24 91.4103 172.548 91.6557 172.81C91.9011 173.071 92.1957 173.282 92.5227 173.43C92.8496 173.578 93.2025 173.66 93.5611 173.671H130.6C131.311 173.654 132.012 173.497 132.663 173.209C133.313 172.921 133.901 172.507 134.392 171.992C134.882 171.476 135.267 170.869 135.523 170.205C135.779 169.541 135.902 168.833 135.884 168.122V87.2603C135.902 86.5488 135.779 85.8409 135.523 85.1769C135.267 84.5129 134.882 83.9059 134.392 83.3906C133.901 82.8752 133.313 82.4617 132.663 82.1735C132.012 81.8853 131.311 81.7281 130.6 81.7109Z" fill="black"/>
<path opacity="0.1" d="M120.867 96.2891H85.6338V185.431H120.867C122.763 185.419 124.577 184.658 125.914 183.312C127.251 181.967 128.001 180.148 128.001 178.252V103.38C127.978 101.499 127.218 99.702 125.883 98.3759C124.549 97.0498 122.748 96.3005 120.867 96.2891Z" fill="black"/>
<path opacity="0.2" d="M120.867 91.1357H85.6338V180.189H120.867C122.755 180.178 124.563 179.422 125.899 178.087C127.234 176.751 127.99 174.943 128.001 173.054V98.1825C127.967 96.3092 127.201 94.5235 125.868 93.2068C124.535 91.8902 122.74 91.1469 120.867 91.1357Z" fill="black"/>
<path opacity="0.1" d="M128.53 83.4727H91.5353C90.8265 83.4955 90.1544 83.7933 89.6612 84.3029C89.168 84.8126 88.8924 85.4941 88.8928 86.2033V172.614C88.8811 172.971 88.9404 173.326 89.0674 173.659C89.1944 173.993 89.3865 174.297 89.6325 174.555C89.8785 174.814 90.1734 175.02 90.5001 175.164C90.8268 175.307 91.1787 175.383 91.5353 175.389H128.53C129.245 175.377 129.951 175.225 130.606 174.939C131.262 174.653 131.855 174.241 132.35 173.725C132.846 173.209 133.234 172.6 133.493 171.933C133.752 171.266 133.876 170.555 133.859 169.84V88.9779C133.882 88.2671 133.763 87.5588 133.509 86.8947C133.254 86.2306 132.869 85.6241 132.377 85.111C131.884 84.598 131.294 84.1887 130.641 83.9073C129.988 83.6259 129.285 83.4781 128.574 83.4727H128.53Z" fill="black"/>
<path opacity="0.1" d="M128.486 85.7188H91.4472C91.0885 85.7301 90.7357 85.8121 90.4087 85.9599C90.0818 86.1078 89.7872 86.3186 89.5417 86.5804C89.2963 86.8422 89.1049 87.1498 88.9785 87.4856C88.852 87.8214 88.7929 88.1788 88.8047 88.5375V174.024C88.8039 174.737 89.078 175.424 89.5701 175.94C90.0622 176.457 90.7344 176.764 91.4472 176.798H128.486C129.199 176.77 129.9 176.6 130.547 176.298C131.194 175.996 131.775 175.568 132.254 175.039C132.734 174.51 133.104 173.891 133.341 173.217C133.579 172.544 133.68 171.83 133.638 171.117V91.2681C133.686 89.8502 133.171 88.471 132.206 87.4314C131.24 86.3917 129.903 85.7761 128.486 85.7188Z" fill="black"/>
<path opacity="0.01" d="M122.496 79.2002H85.5017V151.694H84.9733V163.057C84.9674 163.41 85.0312 163.76 85.1608 164.088C85.2905 164.416 85.4835 164.716 85.7289 164.969C85.9743 165.223 86.2672 165.426 86.5909 165.566C86.9147 165.706 87.2629 165.782 87.6157 165.787L117.035 160.15C119.986 160.15 127.825 157.507 127.825 154.468V84.7495C127.843 84.0344 127.718 83.323 127.459 82.6562C127.201 81.9893 126.812 81.3804 126.317 80.8645C125.821 80.3486 125.229 79.9359 124.573 79.6502C123.917 79.3646 123.211 79.2116 122.496 79.2002Z" fill="black"/>
<path opacity="0.2" d="M120.867 93.6025H85.6338V182.656H120.867C122.755 182.644 124.563 181.889 125.899 180.554C127.234 179.218 127.99 177.41 128.001 175.521V100.649C127.967 98.7759 127.201 96.9902 125.868 95.6736C124.535 94.357 122.74 93.6137 120.867 93.6025Z" fill="black"/>
<path opacity="0.3" d="M120.911 85.8066H85.678V172.922H120.911C122.795 172.911 124.599 172.154 125.927 170.817C127.256 169.48 128.001 167.672 128.001 165.787V92.9415C128.001 91.0568 127.256 89.2487 125.927 87.9119C124.599 86.5751 122.795 85.8183 120.911 85.8066Z" fill="black"/>
<path opacity="0.3" d="M120.867 85.8066H85.6338V172.658H120.867C122.759 172.658 124.573 171.906 125.911 170.568C127.25 169.23 128.001 167.415 128.001 165.523V92.9415C128.001 91.0492 127.25 89.2344 125.911 87.8964C124.573 86.5583 122.759 85.8066 120.867 85.8066Z" fill="black"/>
<path opacity="0.3" d="M120.867 87.5684H85.6338V176.622H120.867C121.805 176.628 122.735 176.447 123.604 176.091C124.472 175.734 125.261 175.209 125.925 174.545C126.588 173.881 127.113 173.093 127.47 172.224C127.826 171.356 128.007 170.426 128.001 169.487V94.6151C127.967 92.7417 127.201 90.9561 125.868 89.6395C124.535 88.3228 122.74 87.5795 120.867 87.5684Z" fill="black"/>
<path opacity="0.2" d="M120.867 89.2412H85.6338V178.295H120.867C122.767 178.272 124.581 177.5 125.917 176.148C127.252 174.796 128.001 172.972 128.001 171.072V96.1999C127.955 94.3383 127.183 92.5685 125.85 91.2683C124.517 89.9681 122.729 89.2406 120.867 89.2412Z" fill="black"/>
<path opacity="0.1" d="M127.605 88.5371H90.6105C90.2502 88.5369 89.8936 88.6092 89.5617 88.7497C89.2299 88.8902 88.9297 89.096 88.6791 89.3549C88.4284 89.6137 88.2324 89.9204 88.1027 90.2566C87.973 90.5928 87.9122 90.9516 87.9241 91.3118V172.217C87.9182 172.576 87.9831 172.932 88.115 173.266C88.2468 173.599 88.4431 173.904 88.6926 174.161C88.942 174.419 89.2398 174.625 89.5689 174.768C89.898 174.91 90.252 174.986 90.6105 174.992H127.605C128.316 174.975 129.017 174.818 129.668 174.53C130.319 174.241 130.906 173.828 131.397 173.312C131.888 172.797 132.272 172.19 132.529 171.526C132.785 170.862 132.907 170.154 132.89 169.443V93.8662C132.878 92.4639 132.319 91.1217 131.332 90.126C130.345 89.1303 129.007 88.5601 127.605 88.5371Z" fill="black"/>
<path opacity="0.2" d="M123.509 88.5366H86.5587C86.2447 88.4293 85.9039 88.4293 85.5898 88.5366V172.922C85.9115 172.963 86.2371 172.963 86.5587 172.922H123.597C124.309 172.905 125.01 172.747 125.66 172.459C126.311 172.171 126.899 171.757 127.389 171.242C127.88 170.727 128.265 170.12 128.521 169.456C128.777 168.792 128.9 168.084 128.882 167.372V93.8657C128.906 93.1528 128.787 92.4423 128.533 91.7758C128.279 91.1092 127.895 90.4998 127.403 89.9833C126.911 89.4667 126.321 89.0533 125.668 88.7671C125.014 88.481 124.31 88.3277 123.597 88.3164L123.509 88.5366Z" fill="black"/>
<path opacity="0.3" d="M114.216 83.5166H87.2633C86.9067 83.5223 86.5548 83.5988 86.2281 83.7419C85.9014 83.885 85.6065 84.0917 85.3605 84.35C85.1146 84.6083 84.9224 84.913 84.7954 85.2462C84.6684 85.5795 84.6091 85.9348 84.6208 86.2913V167.329C84.6205 168.038 84.896 168.72 85.3892 169.229C85.8824 169.739 86.5545 170.037 87.2633 170.06H124.302C125.731 170.025 127.088 169.427 128.078 168.396C129.068 167.364 129.61 165.984 129.587 164.554V91.4882C129.587 88.2291 122.408 86.4234 121.615 85.4104C119.343 84.1789 116.801 83.5283 114.216 83.5166Z" fill="black"/>
<path opacity="0.1" d="M125.843 92.2803H88.8048C88.092 92.3143 87.4198 92.6215 86.9277 93.1382C86.4356 93.6549 86.1615 94.3414 86.1624 95.055V176.137C86.1506 176.495 86.2096 176.853 86.3361 177.189C86.4625 177.524 86.6539 177.832 86.8993 178.094C87.1448 178.356 87.4394 178.566 87.7663 178.714C88.0933 178.862 88.4461 178.944 88.8048 178.955H125.843C127.268 178.91 128.619 178.308 129.607 177.279C130.594 176.25 131.14 174.876 131.128 173.45V97.8296C131.164 96.4002 130.633 95.0146 129.651 93.9751C128.669 92.9356 127.316 92.3263 125.887 92.2803H125.843Z" fill="black"/>
<path opacity="0.1" d="M122.496 80.7412H85.5016V153.279H84.9731V164.642C84.9614 164.998 85.0207 165.353 85.1477 165.687C85.2747 166.02 85.4668 166.325 85.7128 166.583C85.9588 166.841 86.2537 167.048 86.5804 167.191C86.9071 167.334 87.259 167.411 87.6156 167.416L117.035 161.735C119.986 161.735 127.825 159.092 127.825 156.054V86.2905C127.842 85.5754 127.718 84.864 127.459 84.1972C127.2 83.5304 126.812 82.9214 126.317 82.4055C125.821 81.8895 125.229 81.4769 124.573 81.1912C123.917 80.9056 123.211 80.7526 122.496 80.7412Z" fill="black"/>
<path opacity="0.15" d="M122.496 82.1514H85.5016V154.601H84.9731V165.92C84.9614 166.276 85.0207 166.631 85.1477 166.965C85.2747 167.298 85.4668 167.603 85.7128 167.861C85.9588 168.119 86.2537 168.326 86.5804 168.469C86.9071 168.612 87.259 168.689 87.6156 168.694L117.035 163.057C119.986 163.057 127.825 160.414 127.825 157.376V87.7007C127.842 86.9856 127.718 86.2741 127.459 85.6073C127.2 84.9405 126.812 84.3315 126.317 83.8156C125.821 83.2997 125.229 82.887 124.573 82.6014C123.917 82.3157 123.211 82.1628 122.496 82.1514Z" fill="black"/>
</g>
<path d="M50.0928 83.252H120.911C122.834 83.3096 124.657 84.1234 125.985 85.5168C127.312 86.9102 128.037 88.7709 128.001 90.6951V164.642C128.073 166.567 127.382 168.442 126.079 169.861C124.776 171.279 122.966 172.126 121.043 172.217H50.0928C49.1404 172.2 48.2009 171.995 47.3282 171.613C46.4556 171.231 45.667 170.681 45.008 169.993C44.349 169.305 43.8325 168.494 43.4882 167.606C43.144 166.718 42.9788 165.77 43.0022 164.818V90.6951C42.9665 88.7709 43.691 86.9102 45.0184 85.5168C46.3458 84.1234 48.1692 83.3096 50.0928 83.252Z" fill="#107C41"/>
<path d="M62.292 155.393L78.9835 128.174L63.6572 101.309H75.9887L84.3124 118.485C84.9039 119.72 85.4331 120.984 85.8979 122.273C86.4264 120.996 87.043 119.674 87.6595 118.485L96.4677 101.441H107.786L92.2398 128.174L108.315 155.348H96.2475L86.5585 136.63C86.118 135.815 85.721 134.977 85.3694 134.12C85.0778 134.967 84.6938 135.779 84.2243 136.542L74.3151 155.437L62.292 155.393Z" fill="white"/>
</svg>

<svg xmlns="http://www.w3.org/2000/svg" width="256" height="256" fill="none"><path fill="#282828" d="M196 0H60C26.863 0 0 26.863 0 60v136c0 33.137 26.863 60 60 60h136c33.137 0 60-26.863 60-60V60c0-33.137-26.863-60-60-60"/><path fill="#21A366" d="M92.548 50h113.317a6.83 6.83 0 0 1 5.021 2.158 7.7 7.7 0 0 1 2.07 5.241v140.495a7.7 7.7 0 0 1-2.07 5.241 6.82 6.82 0 0 1-5.021 2.158H92.548a7.17 7.17 0 0 1-5.054-2.211 7.18 7.18 0 0 1-1.993-5.144V57.399A7.223 7.223 0 0 1 92.505 50z"/><path fill="#185C37" d="M85.502 127.646v70.468a7.18 7.18 0 0 0 6.87 7.531h113.493a7.22 7.22 0 0 0 5.085-2.224 7.22 7.22 0 0 0 2.006-5.175v-70.467z"/><path fill="#107C41" d="M85.502 88.846h127.454v38.845H85.502z"/><path fill="#33C481" d="M205.865 50h-56.636v116.492h63.727V57.399a7.7 7.7 0 0 0-2.07-5.24A6.83 6.83 0 0 0 205.865 50"/><path fill="#21A366" d="M149.229 88.846H213v38.845h-63.771z"/><path fill="#107C41" d="M149.229 127.646H213v38.846h-63.771z"/><g fill="#000" opacity=".67"><path d="M130.6 81.71H93.561a2.73 2.73 0 0 0-2.642 2.776v86.367a2.73 2.73 0 0 0 1.604 2.577c.327.148.68.23 1.038.241H130.6a5.42 5.42 0 0 0 3.792-1.679 5.4 5.4 0 0 0 1.492-3.87V87.26a5.41 5.41 0 0 0-3.221-5.087 5.4 5.4 0 0 0-2.063-.462" opacity=".05"/><path d="M120.867 96.29H85.634v89.141h35.233a7.176 7.176 0 0 0 7.134-7.179V103.38a7.176 7.176 0 0 0-7.134-7.09" opacity=".1"/><path d="M120.867 91.136H85.634v89.053h35.233a7.18 7.18 0 0 0 7.134-7.135V98.183a7.18 7.18 0 0 0-7.134-7.047" opacity=".2"/><path d="M128.53 83.473H91.535a2.73 2.73 0 0 0-2.642 2.73v86.411a2.685 2.685 0 0 0 2.642 2.775h36.995a5.415 5.415 0 0 0 4.963-3.456 5.4 5.4 0 0 0 .366-2.093V88.978a5.4 5.4 0 0 0-.35-2.083 5.34 5.34 0 0 0-4.935-3.422z" opacity=".1"/><path d="M128.486 85.719H91.447a2.73 2.73 0 0 0-2.642 2.819v85.486a2.773 2.773 0 0 0 2.642 2.774h37.039a5.37 5.37 0 0 0 5.152-5.681V91.268a5.373 5.373 0 0 0-5.152-5.55" opacity=".1"/><path d="M122.496 79.2H85.502v72.494h-.529v11.363a2.68 2.68 0 0 0 1.618 2.509c.324.14.672.216 1.025.221l29.419-5.637c2.951 0 10.79-2.643 10.79-5.682V84.75a5.41 5.41 0 0 0-3.252-5.1 5.4 5.4 0 0 0-2.077-.45" opacity=".01"/><path d="M120.867 93.603H85.634v89.053h35.233a7.18 7.18 0 0 0 7.134-7.135v-74.872a7.177 7.177 0 0 0-7.134-7.046" opacity=".2"/><path d="M120.911 85.807H85.678v87.115h35.233a7.134 7.134 0 0 0 7.09-7.135V92.942a7.133 7.133 0 0 0-7.09-7.135" opacity=".3"/><path d="M120.867 85.807H85.634v86.851h35.233a7.133 7.133 0 0 0 7.134-7.135V92.942a7.133 7.133 0 0 0-7.134-7.135" opacity=".3"/><path d="M120.867 87.568H85.634v89.054h35.233a7.1 7.1 0 0 0 5.058-2.077 7.1 7.1 0 0 0 2.076-5.058V94.615a7.177 7.177 0 0 0-7.134-7.047" opacity=".3"/><path d="M120.867 89.241H85.634v89.054h35.233a7.223 7.223 0 0 0 7.134-7.223V96.2a7.135 7.135 0 0 0-7.134-6.959" opacity=".2"/><path d="M127.605 88.537H90.611a2.686 2.686 0 0 0-2.687 2.775v80.905a2.73 2.73 0 0 0 2.686 2.775h36.995a5.42 5.42 0 0 0 4.924-3.466 5.4 5.4 0 0 0 .361-2.083V93.866a5.37 5.37 0 0 0-5.285-5.33" opacity=".1"/><path d="M123.509 88.537h-36.95a1.5 1.5 0 0 0-.97 0v84.385q.486.061.97 0h37.038a5.4 5.4 0 0 0 3.792-1.68 5.4 5.4 0 0 0 1.493-3.87V93.866a5.36 5.36 0 0 0-1.479-3.883 5.38 5.38 0 0 0-3.806-1.667z" opacity=".2"/><path d="M114.216 83.517H87.263a2.687 2.687 0 0 0-2.642 2.774v81.038a2.73 2.73 0 0 0 2.642 2.731h37.039a5.42 5.42 0 0 0 5.285-5.506V91.488c0-3.259-7.179-5.065-7.972-6.078a15.7 15.7 0 0 0-7.399-1.893" opacity=".3"/><path d="M125.843 92.28H88.805a2.775 2.775 0 0 0-2.643 2.775v81.082a2.73 2.73 0 0 0 2.643 2.818h37.038a5.46 5.46 0 0 0 5.285-5.505V97.83a5.414 5.414 0 0 0-5.241-5.55z" opacity=".1"/><path d="M122.496 80.741H85.502v72.538h-.529v11.363a2.69 2.69 0 0 0 1.607 2.549c.327.143.679.22 1.036.225l29.419-5.681c2.951 0 10.79-2.643 10.79-5.681V86.29a5.425 5.425 0 0 0-3.252-5.099 5.4 5.4 0 0 0-2.077-.45" opacity=".1"/><path d="M122.496 82.151H85.502v72.45h-.529v11.319a2.69 2.69 0 0 0 1.607 2.549c.327.143.679.22 1.036.225l29.419-5.637c2.951 0 10.79-2.643 10.79-5.681V87.701a5.43 5.43 0 0 0-1.508-3.885 5.42 5.42 0 0 0-3.821-1.665" opacity=".15"/></g><path fill="#107C41" d="M50.093 83.252h70.818a7.31 7.31 0 0 1 7.09 7.443v73.947a7.31 7.31 0 0 1-6.958 7.575h-70.95a7.22 7.22 0 0 1-5.085-2.224 7.23 7.23 0 0 1-2.006-5.175V90.695a7.31 7.31 0 0 1 7.09-7.443"/><path fill="#fff" d="m62.292 155.393 16.692-27.219-15.327-26.865H75.99l8.323 17.176a41 41 0 0 1 1.586 3.788 50 50 0 0 1 1.761-3.788l8.809-17.044h11.318L92.24 128.174l16.075 27.174H96.248l-9.69-18.718a26 26 0 0 1-1.189-2.51 12.2 12.2 0 0 1-1.145 2.422l-9.909 18.895z"/></svg>
